X:1
T:Title
%%score ( 1 2 ) { ( 3 5 ) | 4 }
L:1/8
Q:1/4=63
M:2/4
K:Db
V:1 treble nm="Singstimme\nVoice"
V:2 treble 
V:3 treble nm="Pianoforte"
V:5 treble 
V:4 bass 
V:1
"^Adagio"!mp! F | B3/2 F/ F F | B2 F z/ F/ | B3/2 c/ d3/2 c/ | B3 F | B3/2 F/ F F | B2 F z/ F/ | %7
 B3/2 c/ d3/2 c/ | B2 z!mp! F | G A/ B/ A G | (F2 =A) F | B3/2 c/ d3/2 c/ | B2 z :| %13
 !fermata!f2 e2 |] %14
V:2
 x | x4 | x4 | x4 | x4 | x4 | x4 | x4 | x4 | x4 | F3/2 F/ F2 | x4 | x3 :| x4 |] %14
V:3
 z |!mf! [B,F]4 | [B,F]4 | [DF]4 | [DF]4 |!mp! [B,F]4 | [B,F]4 | [DF]4 | [DF]3!mp! F | %9
!<(! [B,G][CA]/[DB]/!<)!!>(! [CA][B,G]!>)! | (F2 =A)F | [B,D]2 F2 | D3 :| %13
 !fermata![DF]2 !fermata![EG]2 |] %14
V:4
 z | [D,F,]4 | [D,F,]4 | [B,,F,]4 | [B,,F,]4 | [D,F,]4 | [D,F,]4 | [B,,F,]4 | [B,,F,]3 D, | %9
 E,2 E,2 | F,4 | [B,,F,]2 [F,,F,]2 | [B,,F,]3 :| !fermata![B,,F,]2 !fermata![E,B,]2 |] %14
V:5
 x | x4 | x4 | x4 | x4 | x4 | x4 | x4 | x4 | x4 | [=A,C]4 | x2 D>C | B,3 :| F>!fermata!G x2 |] %14

